packages/match-icons/twilio/svg/programming.svg

<svg fill="none" height="32" viewBox="0 0 32 32" width="32" xmlns="http://www.w3.org/2000/svg"><g stroke="#394762" stroke-linecap="round" stroke-linejoin="round" stroke-width="1.7"><path d="m23 19.2693c0-1.9893 3.5493-3.1373 7.3053-3.264.1757-.0084.3488.0449.4894.1507.0627.0464.1138.1066.1494.176s.0548.146.0559.224v8.736c-.0162.1557-.0917.2992-.2109.4008-.1191.1015-.2728.1533-.4291.1445-2.6164-.0456-5.1843.7089-7.36 2.1627-2.1747-1.4571-4.7427-2.2149-7.36-2.172-.1562.0084-.3097-.0435-.4288-.145-.1191-.1014-.1947-.2447-.2112-.4003v-8.732c.0011-.078.0203-.1547.0559-.224.0356-.0694.0867-.1296.1494-.176.1406-.1058.3137-.1591.4894-.1507 3.756.1333 7.3053 1.28 7.3053 3.2693z"/><path d="m23 19.2693v8.7347"/><path d="m11 23.004h-8.66665c-.35625-.0042-.69636-.1492-.94615-.4032s-.388973-.5965-.38719-.9528v-16.28667c-.002847-.35708.13582-.70075.38569-.95586.24986-.25512.59058-.4009.94765-.40547h21.33335c.3565.00422.6968.14934.9466.40366.2498.25433.3889.59718.3867.95367v6.78667"/><path d="m6.21735 28.004h4.78265"/><path d="m11 23.004v5"/><path d="m5 9.00403 4 2.99997-4 3"/><path d="m13 12.004h5"/></g></svg>

<svg width="32" height="32" viewBox="0 0 32 32" fill="none" xmlns="http://www.w3.org/2000/svg">
<path d="M23 19.2693C23 17.28 26.5493 16.132 30.3053 16.0053C30.481 15.9969 30.6541 16.0502 30.7947 16.156C30.8574 16.2024 30.9085 16.2626 30.9441 16.332C30.9797 16.4014 30.9989 16.478 31 16.556V25.292C30.9838 25.4477 30.9083 25.5912 30.7891 25.6928C30.67 25.7943 30.5163 25.8461 30.36 25.8373C27.7436 25.7917 25.1757 26.5462 23 28C20.8253 26.5429 18.2573 25.7851 15.64 25.828C15.4838 25.8364 15.3303 25.7845 15.2112 25.683C15.0921 25.5816 15.0165 25.4383 15 25.2827V16.5507C15.0011 16.4727 15.0203 16.396 15.0559 16.3267C15.0915 16.2573 15.1426 16.1971 15.2053 16.1507C15.3459 16.0449 15.519 15.9916 15.6947 16C19.4507 16.1333 23 17.28 23 19.2693Z" stroke="#394762" stroke-width="1.7" stroke-linecap="round" stroke-linejoin="round"/>
<path d="M23 19.2693V28.004" stroke="#394762" stroke-width="1.7" stroke-linecap="round" stroke-linejoin="round"/>
<path d="M11 23.004H2.33335C1.9771 22.9998 1.63699 22.8548 1.3872 22.6008C1.13741 22.3468 0.998227 22.0043 1.00001 21.648V5.36133C0.997163 5.00425 1.13583 4.66058 1.3857 4.40547C1.63556 4.15035 1.97628 4.00457 2.33335 4H23.6667C24.0232 4.00422 24.3635 4.14934 24.6133 4.40366C24.8631 4.65799 25.0022 5.00084 25 5.35733V12.144" stroke="#394762" stroke-width="1.7" stroke-linecap="round" stroke-linejoin="round"/>
<path d="M6.21735 28.004H11" stroke="#394762" stroke-width="1.7" stroke-linecap="round" stroke-linejoin="round"/>
<path d="M11 23.004V28.004" stroke="#394762" stroke-width="1.7" stroke-linecap="round" stroke-linejoin="round"/>
<path d="M5 9.00403L9 12.004L5 15.004" stroke="#394762" stroke-width="1.7" stroke-linecap="round" stroke-linejoin="round"/>
<path d="M13 12.004H18" stroke="#394762" stroke-width="1.7" stroke-linecap="round" stroke-linejoin="round"/>
</svg>
